!!!id: bhatk3197s
!!!vol: 3
!!!page: 197
!!!sthayee: Jabten bichhure lalana
!!!raag: bihag
!!!taal: teentaal
!!!tempo: madhyalaya
**kern
!!data: // >SN,  S  >MG  M/ P  P  >S'N  -/  S'  -  S'  -/  -  N  >DP  -/
==1
cq
4B
4c
fq
4e
4f
=
4g
4g
ccq
2b
=
2cc
[2cc
=
4cc]
4b
aq
2g
!!data: // >PG  M  G  G/  >PG  M  %P  -/  >GM  G  M  GR/  S  R  S  -/
==2
gq
4e
4f
4e
4e
=
gq
4e
4f
2gS
=
eq
4f
4e
4f
8e
8d
=
4c
4d
2c
==
*-
